outputs/icons/action/label_round.svg

<svg xmlns="http://www.w3.org/2000/svg" width="1200" height="1200" fill="none"><g clip-path="url(#a)"><path fill="#000" d="M881.5 292c-18-25.5-48-42-81.5-42l-550 .5c-55 0-100 44.5-100 99.5v500c0 55 45 99.5 100 99.5l550 .5c33.5 0 63.5-16.5 81.5-42l198-279c12.5-17.5 12.5-40.5 0-58z"/></g><defs><clipPath id="a"><path fill="#fff" d="M0 0h1200v1200H0z"/></clipPath></defs></svg>

<svg width="1200" height="1200" viewBox="0 0 1200 1200" fill="none" xmlns="http://www.w3.org/2000/svg"><g clip-path="url(#clip0_223_1903)"><path d="M881.5 292C863.5 266.5 833.5 250 800 250L250 250.5C195 250.5 150 295 150 350V850C150 905 195 949.5 250 949.5L800 950C833.5 950 863.5 933.5 881.5 908L1079.5 629C1092 611.5 1092 588.5 1079.5 571L881.5 292Z" fill="#1D1E23"/></g><defs><clipPath id="clip0_223_1903"><path width="24" fill="white" d="M0 0H1200V1200H0V0z"/></clipPath></defs></svg>
